src/assets/icons/logo.svg

<svg width="48" height="48" viewBox="0 0 48 48" fill="none" xmlns="http://www.w3.org/2000/svg">
<g clip-path="url(#clip0_1216_13140)">
<path d="M5.09995 3.59998C4.29995 3.59998 3.69995 4.19998 3.69995 4.99998V42.7C3.69995 43.5 4.29995 44.1 5.09995 44.1H42.7999C43.5999 44.1 44.2 43.5 44.2 42.7V5.09998C44.2 4.29998 43.5999 3.69998 42.7999 3.69998H5.09995V3.59998Z" fill="white" fill-opacity="0.8"/>
<mask id="mask0_1216_13140" style="mask-type:luminance" maskUnits="userSpaceOnUse" x="0" y="0" width="48" height="48">
<path d="M48 0H0V48H48V0Z" fill="white"/>
</mask>
<g mask="url(#mask0_1216_13140)">
<path d="M14.6001 38.9001C14.3001 38.9001 14.0001 38.8 13.9001 38.6C13.7001 38.4 13.6001 38.2001 13.6001 37.9001V9.40005C13.6001 9.10005 13.7001 8.80005 13.9001 8.60005C14.1001 8.40005 14.3001 8.30005 14.6001 8.30005H25.8001C28.0001 8.30005 29.9001 8.60005 31.5001 9.30005C33.1001 10 34.3001 11 35.2001 12.4C36.1001 13.8 36.5001 15.5 36.5001 17.6C36.5001 19.7 36.1001 21.4 35.2001 22.8C34.3001 24.2 33.1001 25.2 31.5001 25.9C29.9001 26.6 28.0001 26.9 25.8001 26.9H18.0001V37.8C18.0001 38.1 17.9001 38.3 17.7001 38.5C17.5001 38.7 17.3001 38.8 16.9001 38.8H14.6001V38.9001ZM17.9001 23.3H25.5001C27.7001 23.3 29.3001 22.8 30.4001 21.9C31.5001 20.9 32.0001 19.5 32.0001 17.7C32.0001 15.9 31.5001 14.5 30.4001 13.5C29.3001 12.5 27.7001 12 25.5001 12H17.9001V23.3Z" fill="black"/>
</g>
<mask id="mask1_1216_13140" style="mask-type:luminance" maskUnits="userSpaceOnUse" x="0" y="0" width="48" height="48">
<path d="M48 0H0V48H48V0Z" fill="white"/>
</mask>
<g mask="url(#mask1_1216_13140)">
<path d="M42.7 47.8H5.1C2.3 47.8 0 45.5 0 42.7V5.1C0 2.3 2.3 0 5.1 0H42.8C45.6 0 47.9 2.3 47.9 5.1V42.8C47.8 45.5 45.5 47.8 42.7 47.8ZM5.1 3.6C4.3 3.6 3.7 4.2 3.7 5V42.7C3.7 43.5 4.3 44.1 5.1 44.1H42.8C43.6 44.1 44.2 43.5 44.2 42.7V5.1C44.2 4.3 43.6 3.7 42.8 3.7H5.1V3.6Z" fill="#218BEE"/>
</g>
</g>
<defs>
<clipPath id="clip0_1216_13140">
<rect width="48" height="48" fill="white"/>
</clipPath>
</defs>
</svg>

<svg xmlns="http://www.w3.org/2000/svg" width="48" height="48" fill="none"><g clip-path="url(#a)"><path fill="#fff" fill-opacity=".8" d="M5.1 3.6c-.8 0-1.4.6-1.4 1.4v37.7c0 .8.6 1.4 1.4 1.4h37.7c.8 0 1.4-.6 1.4-1.4V5.1c0-.8-.6-1.4-1.4-1.4H5.1v-.1Z"/><mask id="b" width="48" height="48" x="0" y="0" maskUnits="userSpaceOnUse" style="mask-type:luminance"><path fill="#fff" d="M48 0H0v48h48V0Z"/></mask><g mask="url(#b)"><path fill="#000" d="M14.6 38.9c-.3 0-.6-.1-.7-.3-.2-.2-.3-.4-.3-.7V9.4c0-.3.1-.6.3-.8.2-.2.4-.3.7-.3h11.2c2.2 0 4.1.3 5.7 1 1.6.7 2.8 1.7 3.7 3.1.9 1.4 1.3 3.1 1.3 5.2s-.4 3.8-1.3 5.2c-.9 1.4-2.1 2.4-3.7 3.1-1.6.7-3.5 1-5.7 1H18v10.9c0 .3-.1.5-.3.7-.2.2-.4.3-.8.3h-2.3v.1Zm3.3-15.6h7.6c2.2 0 3.8-.5 4.9-1.4 1.1-1 1.6-2.4 1.6-4.2 0-1.8-.5-3.2-1.6-4.2S27.7 12 25.5 12h-7.6v11.3Z"/></g><mask id="c" width="48" height="48" x="0" y="0" maskUnits="userSpaceOnUse" style="mask-type:luminance"><path fill="#fff" d="M48 0H0v48h48V0Z"/></mask><g mask="url(#c)"><path fill="#218BEE" d="M42.7 47.8H5.1c-2.8 0-5.1-2.3-5.1-5.1V5.1C0 2.3 2.3 0 5.1 0h37.7c2.8 0 5.1 2.3 5.1 5.1v37.7c-.1 2.7-2.4 5-5.2 5ZM5.1 3.6c-.8 0-1.4.6-1.4 1.4v37.7c0 .8.6 1.4 1.4 1.4h37.7c.8 0 1.4-.6 1.4-1.4V5.1c0-.8-.6-1.4-1.4-1.4H5.1v-.1Z"/></g></g><defs><clipPath id="a"><path fill="#fff" d="M0 0h48v48H0z"/></clipPath></defs></svg>
